wp-content/themes/KOOEN/assets/img/common/footer_logo.svg

<svg fill="none" height="24" viewBox="0 0 110 24" width="110" xmlns="http://www.w3.org/2000/svg" xmlns:xlink="http://www.w3.org/1999/xlink"><clipPath id="a"><path d="m0 .196594h110v23.731h-110z"/></clipPath><g clip-path="url(#a)" fill="#fff"><path d="m28.753 18.734c-.9679-.3669-1.8683-.9173-2.6562-1.6583-.7878-.7409-1.3731-1.5947-1.7633-2.498-.3001-.6915-.4802-1.4254-.5477-2.1663-.0225-.2329-.0225-.4657 0-.6986.0675-.7409.2476-1.4678.5477-2.16634.3902-.91029.9755-1.75707 1.7633-2.498.7879-.74094 1.6958-1.29134 2.6562-1.65828.968-.36694 1.996-.55041 3.0239-.55041 1.028 0 2.0635.18347 3.0239.55041.9679.36694 1.8683.91734 2.6562 1.65828l5.3274 5.01014-5.3274 5.0101c-.7879.7409-1.6958 1.2913-2.6562 1.6583-.968.3669-1.9959.5504-3.0239.5504-1.0279 0-2.0559-.1764-3.0239-.5434zm28.8581 0c-.9679-.3669-1.8683-.9173-2.6562-1.6583l-5.3274-5.0101 5.3274-5.01009c.7879-.74093 1.6958-1.29134 2.6562-1.65828.968-.36693 1.996-.5504 3.0239-.5504 1.028 0 2.0635.18347 3.0239.5504.9679.36694 1.8683.91735 2.6562 1.65828s1.3731 1.59477 1.7633 2.498c.06.13408.1126.26815.1576.40222.4877 1.36187.4877 2.85087 0 4.21277-.045.134-.1051.2752-.1576.4022-.3902.9103-.9754 1.7571-1.7633 2.498s-1.6958 1.2913-2.6562 1.6583c-.9679.3669-1.9959.5504-3.0239.5504-1.0279.0141-2.0559-.1764-3.0239-.5434zm-1.8158-17.55655c-1.5532.59274-3.0088 1.48186-4.2619 2.6603l-5.3274 5.01011-5.3275-5.01011c-1.253-1.17844-2.7087-2.06756-4.2619-2.6603-1.5532-.592747-3.1964-.88912-4.8397-.88912-1.6432 0-3.294.296373-4.8397.88912-1.5532.59274-3.0088 1.48186-4.2619 2.6603-1.2531 1.17843-2.1985 2.54739-2.8288 4.00809-.4502 1.05142-.9304 2.25806-.9304 4.21976 0 1.9194.4877 3.1825.9304 4.2198.6303 1.4607 1.5757 2.8297 2.8288 4.0081s2.7087 2.0676 4.2619 2.6603c1.5532.5928 3.1965.8891 4.8397.8891 1.6433 0 3.294-.2963 4.8397-.8891 1.5532-.5927 3.0089-1.4819 4.2619-2.6603l5.3275-5.0101 5.3274 5.0101c1.2531 1.1784 2.7087 2.0676 4.2619 2.6603 1.5532.5928 3.1965.8891 4.8397.8891 1.6433 0 3.294-.2963 4.8397-.8891 1.5532-.5927 3.0089-1.4819 4.262-2.6603 1.253-1.1784 2.1985-2.5474 2.8287-4.0081.4127-.9597.9305-2.5827.9305-4.2198 0-1.6653-.5478-3.32359-.9305-4.21976-.6302-1.4607-1.5757-2.82966-2.8287-4.00809-1.2531-1.17844-2.7088-2.06756-4.262-2.6603-1.5457-.592747-3.1889-.882063-4.8322-.882063-1.6432 0-3.294.289316-4.8472.882063z"/><path d="m0 2.24298v19.63122c0 1.129.975443 2.0463 2.17599 2.0463 1.20054 0 2.17599-.9173 2.17599-2.0463v-19.63122c0-1.12904-.97545-2.046386-2.17599-2.046386-1.200547 0-2.17599.917346-2.17599 2.046386z"/><path d="m16.9727 19.8278c-1.148 0-2.2285-.2188-3.2115-.6069-1.4781-.5857-2.7462-1.5736-3.6391-2.8155-.89292-1.249-1.41066-2.7309-1.41066-4.3468 0-1.0797.23261-2.09581.6453-3.02021.62278-1.39013 1.67326-2.58268 2.99386-3.4224 1.3206-.83973 2.8963-1.32663 4.6146-1.32663 1.2005 0 2.176-.91734 2.176-2.04638s-.9755-2.046386-2.176-2.046386c-3.4741 0-6.648 1.333676-8.92156 3.471796-2.27353 2.14518-3.69168 5.12302-3.68417 8.39021 0 3.2671 1.41814 6.252 3.69167 8.3901 2.27356 2.1452 5.43996 3.4789 8.92156 3.4718 1.2005 0 2.176-.9173 2.176-2.0463 0-1.1291-.9755-2.0464-2.176-2.0464z"/><path d="m95.4809 21.8742v-12.80053c0-.66331.1426-1.29134.3977-1.85586.3827-.85384 1.028-1.58771 1.8459-2.10284.8103-.51512 1.7783-.8115 2.8365-.8115.705 0 1.373.13408 1.973.374.908.35988 1.688.96674 2.236 1.7359.548.7621.863 1.67239.863 2.66735v12.80758c0 1.129.975 2.0463 2.176 2.0463s2.176-.9173 2.176-2.0463v-12.81463c0-2.44155-1.058-4.67846-2.761-6.27323-1.688-1.60888-4.06-2.603846-6.656-2.603846-2.5959 0-4.9745.994966-6.6703 2.596786-1.7033 1.60183-2.7688 3.83168-2.7612 6.27323v12.80759c0 1.129.9754 2.0463 2.1759 2.0463 1.2006 0 2.1685-.9103 2.1685-2.0463z"/><path d="m86.1466 10.0122h-7.9986c.0975-.33167.2176-.65627.3526-.97381.6228-1.39013 1.6733-2.58268 2.9939-3.4224 1.3206-.83973 2.8963-1.32663 4.6146-1.32663 1.2005 0 2.176-.91734 2.176-2.04638s-.9755-2.046386-2.176-2.046386c-3.4741 0-6.648 1.333676-8.9215 3.471796-2.2811 2.13812-3.6992 5.11596-3.6917 8.39021 0 3.2671 1.4181 6.252 3.6917 8.3901 2.2735 2.1452 5.4474 3.4789 8.9215 3.4718 1.2005 0 2.176-.9173 2.176-2.0463 0-1.1291-.9755-2.0464-2.176-2.0464-1.148 0-2.2285-.2188-3.2115-.6069-1.4781-.5857-2.7462-1.5736-3.6391-2.8155-.4952-.6916-.8779-1.4678-1.1105-2.2934h7.9911c1.2006 0 2.176-.9173 2.176-2.0464.0075-1.1361-.9679-2.0534-2.1685-2.0534z"/></g></svg>

<svg width="110" height="24" viewBox="0 0 110 24" fill="none" xmlns="http://www.w3.org/2000/svg">
<g clip-path="url(#clip0)">
<path d="M28.753 18.734C27.7851 18.3671 26.8847 17.8167 26.0968 17.0757C25.309 16.3348 24.7237 15.481 24.3335 14.5777C24.0334 13.8862 23.8533 13.1523 23.7858 12.4114C23.7633 12.1785 23.7633 11.9457 23.7858 11.7128C23.8533 10.9719 24.0334 10.245 24.3335 9.54646C24.7237 8.63617 25.309 7.78939 26.0968 7.04846C26.8847 6.30752 27.7926 5.75712 28.753 5.39018C29.721 5.02324 30.749 4.83977 31.7769 4.83977C32.8049 4.83977 33.8404 5.02324 34.8008 5.39018C35.7687 5.75712 36.6691 6.30752 37.457 7.04846L42.7844 12.0586L37.457 17.0687C36.6691 17.8096 35.7612 18.36 34.8008 18.727C33.8328 19.0939 32.8049 19.2774 31.7769 19.2774C30.749 19.2774 29.721 19.101 28.753 18.734ZM57.6111 18.734C56.6432 18.3671 55.7428 17.8167 54.9549 17.0757L49.6275 12.0656L54.9549 7.05551C55.7428 6.31458 56.6507 5.76417 57.6111 5.39723C58.5791 5.0303 59.6071 4.84683 60.635 4.84683C61.663 4.84683 62.6985 5.0303 63.6589 5.39723C64.6268 5.76417 65.5272 6.31458 66.3151 7.05551C67.103 7.79644 67.6882 8.65028 68.0784 9.55351C68.1384 9.68759 68.191 9.82166 68.236 9.95573C68.7237 11.3176 68.7237 12.8066 68.236 14.1685C68.191 14.3025 68.1309 14.4437 68.0784 14.5707C67.6882 15.481 67.103 16.3278 66.3151 17.0687C65.5272 17.8096 64.6193 18.36 63.6589 18.727C62.691 19.0939 61.663 19.2774 60.635 19.2774C59.6071 19.2915 58.5791 19.101 57.6111 18.734ZM55.7953 1.17745C54.2421 1.77019 52.7865 2.65931 51.5334 3.83775L46.206 8.84786L40.8785 3.83775C39.6255 2.65931 38.1698 1.77019 36.6166 1.17745C35.0634 0.584703 33.4202 0.28833 31.7769 0.28833C30.1337 0.28833 28.4829 0.584703 26.9372 1.17745C25.384 1.77019 23.9284 2.65931 22.6753 3.83775C21.4222 5.01618 20.4768 6.38514 19.8465 7.84584C19.3963 8.89726 18.9161 10.1039 18.9161 12.0656C18.9161 13.985 19.4038 15.2481 19.8465 16.2854C20.4768 17.7461 21.4222 19.1151 22.6753 20.2935C23.9284 21.4719 25.384 22.3611 26.9372 22.9538C28.4904 23.5466 30.1337 23.8429 31.7769 23.8429C33.4202 23.8429 35.0709 23.5466 36.6166 22.9538C38.1698 22.3611 39.6255 21.4719 40.8785 20.2935L46.206 15.2834L51.5334 20.2935C52.7865 21.4719 54.2421 22.3611 55.7953 22.9538C57.3485 23.5466 58.9918 23.8429 60.635 23.8429C62.2783 23.8429 63.929 23.5466 65.4747 22.9538C67.0279 22.3611 68.4836 21.4719 69.7367 20.2935C70.9897 19.1151 71.9352 17.7461 72.5654 16.2854C72.9781 15.3257 73.4959 13.7027 73.4959 12.0656C73.4959 10.4003 72.9481 8.74201 72.5654 7.84584C71.9352 6.38514 70.9897 5.01618 69.7367 3.83775C68.4836 2.65931 67.0279 1.77019 65.4747 1.17745C63.929 0.584703 62.2858 0.295387 60.6425 0.295387C58.9993 0.295387 57.3485 0.584703 55.7953 1.17745Z" fill="white"/>
<path d="M0 2.24298V21.8742C0 23.0032 0.975443 23.9205 2.17599 23.9205C3.37653 23.9205 4.35198 23.0032 4.35198 21.8742V2.24298C4.35198 1.11394 3.37653 0.196594 2.17599 0.196594C0.975443 0.196594 0 1.11394 0 2.24298Z" fill="white"/>
<path d="M16.9727 19.8278C15.8247 19.8278 14.7442 19.609 13.7612 19.2209C12.2831 18.6352 11.015 17.6473 10.1221 16.4054C9.22918 15.1564 8.71144 13.6745 8.71144 12.0586C8.71144 10.9789 8.94405 9.96279 9.35674 9.03839C9.97952 7.64826 11.03 6.45571 12.3506 5.61599C13.6712 4.77626 15.2469 4.28936 16.9652 4.28936C18.1657 4.28936 19.1412 3.37202 19.1412 2.24298C19.1412 1.11394 18.1657 0.196594 16.9652 0.196594C13.4911 0.196594 10.3172 1.53027 8.04364 3.66839C5.77011 5.81357 4.35196 8.79141 4.35947 12.0586C4.35947 15.3257 5.77761 18.3106 8.05114 20.4487C10.3247 22.5939 13.4911 23.9276 16.9727 23.9205C18.1732 23.9205 19.1487 23.0032 19.1487 21.8742C19.1487 20.7451 18.1732 19.8278 16.9727 19.8278Z" fill="white"/>
<path d="M95.4809 21.8742V9.07367C95.4809 8.41036 95.6235 7.78233 95.8786 7.21781C96.2613 6.36397 96.9066 5.6301 97.7245 5.11497C98.5348 4.59985 99.5028 4.30347 100.561 4.30347C101.266 4.30347 101.934 4.43755 102.534 4.67747C103.442 5.03735 104.222 5.64421 104.77 6.41337C105.318 7.17547 105.633 8.08576 105.633 9.08072V21.8883C105.633 23.0173 106.608 23.9346 107.809 23.9346C109.01 23.9346 109.985 23.0173 109.985 21.8883V9.07367C109.985 6.63212 108.927 4.39521 107.224 2.80044C105.536 1.19156 103.164 0.196594 100.568 0.196594C97.9721 0.196594 95.5935 1.19156 93.8977 2.79338C92.1944 4.39521 91.1289 6.62506 91.1365 9.06661V21.8742C91.1365 23.0032 92.1119 23.9205 93.3124 23.9205C94.513 23.9205 95.4809 23.0102 95.4809 21.8742Z" fill="white"/>
<path d="M86.1466 10.0122H78.148C78.2455 9.68053 78.3656 9.35593 78.5006 9.03839C79.1234 7.64826 80.1739 6.45571 81.4945 5.61599C82.8151 4.77626 84.3908 4.28936 86.1091 4.28936C87.3096 4.28936 88.2851 3.37202 88.2851 2.24298C88.2851 1.11394 87.3096 0.196594 86.1091 0.196594C82.635 0.196594 79.4611 1.53027 77.1876 3.66839C74.9065 5.80651 73.4884 8.78435 73.4959 12.0586C73.4959 15.3257 74.914 18.3106 77.1876 20.4487C79.4611 22.5939 82.635 23.9276 86.1091 23.9205C87.3096 23.9205 88.2851 23.0032 88.2851 21.8742C88.2851 20.7451 87.3096 19.8278 86.1091 19.8278C84.9611 19.8278 83.8806 19.609 82.8976 19.2209C81.4195 18.6352 80.1514 17.6473 79.2585 16.4054C78.7633 15.7138 78.3806 14.9376 78.148 14.112H86.1391C87.3397 14.112 88.3151 13.1947 88.3151 12.0656C88.3226 10.9295 87.3472 10.0122 86.1466 10.0122Z" fill="white"/>
</g>
<defs>
<clipPath id="clip0">
<rect width="110" height="23.731" fill="white" transform="translate(0 0.196594)"/>
</clipPath>
</defs>
</svg>
